components/icon/svg/24/action_shopping-basket.svg

<?xml version="1.0" encoding="UTF-8"?>
<svg width="24px" height="24px" viewBox="0 0 24 24" version="1.1" xmlns="http://www.w3.org/2000/svg" xmlns:xlink="http://www.w3.org/1999/xlink">
    <!-- Generator: Sketch 64 (93537) - https://sketch.com -->
    <title>ic-db_action_shopping-basket_24</title>
    <desc>Created with Sketch.</desc>
    <g id="Symbols:Icon" stroke="none" stroke-width="1" fill="none" fill-rule="evenodd">
        <g id="24dp-Icon/Action/Shopping-Basket" fill="#282D37">
            <path d="M12.0011257,2 C15.3496235,2 18,4.6875 18,8 L18,8 L20.6383724,8 C21.4833205,8 22.1092079,8.7812 21.9840304,9.5938 L21.9840304,9.5938 L20.26284,19.9062 C20.0437794,21.125 19.1049482,22 17.7905846,22 L17.7905846,22 L6.14907805,22 C4.99118628,22 3.95847199,21.0938 3.77070576,19.9062 L3.77070576,19.9062 L2.01822091,9.625 C1.89304342,8.8125 2.42504775,8 3.23870143,8 L3.23870143,8 L6,8 C6,4.6875 8.68392221,2 12.0011257,2 Z M19.8873075,10 L4.11494385,10 L5.74225121,19.5938 C5.77354559,19.8125 5.96131182,20 6.14907805,20 L6.14907805,20 L17.7905846,20 C18.0096452,20 18.2287058,19.8125 18.2600001,19.5938 L18.2600001,19.5938 L19.8873075,10 Z M12.0011257,4 C9.77922524,4 8,5.7812 8,8 L8,8 L16,8 C16,5.8125 14.2230261,4 12.0011257,4 Z" id="🎨-Color"></path>
        </g>
    </g>
</svg>

<svg width="24" height="24" xmlns="http://www.w3.org/2000/svg"><path d="M12.001 2A5.978 5.978 0 0118 8h2.638c.845 0 1.471.781 1.346 1.594l-1.721 10.312C20.043 21.125 19.105 22 17.79 22H6.149c-1.158 0-2.19-.906-2.378-2.094L2.018 9.625C1.893 8.812 2.425 8 3.238 8H6a6 6 0 016.001-6zm7.886 8H4.115l1.627 9.594c.032.218.22.406.407.406h11.642a.5.5 0 00.469-.406L19.887 10zm-7.886-6A3.987 3.987 0 008 8h8c0-2.188-1.777-4-3.999-4z" fill="#282D37" fill-rule="evenodd"/></svg>
